icons/hicolor/16x16/actions/icon-vancer-symbolic.svg

<?xml version="1.0" encoding="UTF-8" standalone="no"?>
<svg
   xmlns:dc="http://purl.org/dc/elements/1.1/"
   xmlns:cc="http://creativecommons.org/ns#"
   xmlns:rdf="http://www.w3.org/1999/02/22-rdf-syntax-ns#"
   xmlns:svg="http://www.w3.org/2000/svg"
   xmlns="http://www.w3.org/2000/svg"
   xmlns:sodipodi="http://sodipodi.sourceforge.net/DTD/sodipodi-0.dtd"
   xmlns:inkscape="http://www.inkscape.org/namespaces/inkscape"
   inkscape:version="1.0 (4035a4fb49, 2020-05-01)"
   sodipodi:docname="vancer-symbolic.svg"
   width="64"
   height="64"
   version="1.1"
   id="svg24">
  <sodipodi:namedview
     inkscape:document-rotation="0"
     inkscape:current-layer="svg24"
     inkscape:window-maximized="1"
     inkscape:window-y="40"
     inkscape:window-x="0"
     inkscape:cy="32"
     inkscape:cx="-17.084746"
     inkscape:zoom="3.6875"
     showgrid="false"
     id="namedview951"
     inkscape:window-height="898"
     inkscape:window-width="1920"
     inkscape:pageshadow="2"
     inkscape:pageopacity="0"
     guidetolerance="10"
     gridtolerance="10"
     objecttolerance="10"
     borderopacity="1"
     bordercolor="#666666"
     pagecolor="#ffffff" />
  <metadata
     id="metadata30">
    <rdf:RDF>
      <cc:Work
         rdf:about="">
        <dc:format>image/svg+xml</dc:format>
        <dc:type
           rdf:resource="http://purl.org/dc/dcmitype/StillImage" />
        <dc:title />
      </cc:Work>
    </rdf:RDF>
  </metadata>
  <defs
     id="defs28" />
  <path
     style="fill:#cccccc;stroke-width:1.29545"
     d="M 8.681819,9.977273 C 5.8200985,9.977559 3.5002862,12.29737 3.5,15.159091 V 48.84091 c 2.862e-4,2.86172 2.3200985,5.181531 5.181819,5.181817 h 2.59091 c 2.360983,-0.0025 4.421874,-1.600394 5.012296,-3.886364 h 0.169522 31.090909 0.172051 c 0.590185,2.285058 2.649723,3.882761 5.009765,3.886364 h 2.590911 C 58.179904,54.022441 60.499715,51.70263 60.5,48.84091 V 15.159091 C 60.499715,12.29737 58.179904,9.977559 55.318183,9.977273 h -2.590911 c -2.360983,0.0023 -4.421874,1.600395 -5.012296,3.886364 H 47.545456 16.454547 16.282494 C 15.69231,11.578578 13.632771,9.980877 11.272729,9.977273 Z m 0,6.477273 h 2.59091 v 33.681817 h -2.59091 z m 44.045453,0 h 2.590911 v 33.681817 h -2.590911 z m -38.863635,3.886363 h 2.59091 V 46.25 h -2.59091 z m 5.181818,0 H 44.954546 V 46.25 H 19.045455 Z m 28.500001,0 h 2.590908 V 46.25 h -2.590908 z m -25.909093,2.59091 V 43.65909 H 42.363638 V 22.931819 Z"
     id="path4" />
</svg>

<svg xmlns="http://www.w3.org/2000/svg" width="64" height="64"><path d="M8.682 9.977A5.18 5.18 0 0 0 3.5 15.16v33.682a5.18 5.18 0 0 0 5.182 5.182h2.59a5.18 5.18 0 0 0 5.013-3.887h31.433a5.18 5.18 0 0 0 5.01 3.887h2.59A5.18 5.18 0 0 0 60.5 48.84V15.159a5.18 5.18 0 0 0-5.182-5.182h-2.59a5.18 5.18 0 0 0-5.013 3.887H16.282a5.18 5.18 0 0 0-5.01-3.887Zm0 6.478h2.59v33.681h-2.59zm44.045 0h2.591v33.681h-2.59zM13.864 20.34h2.59v25.91h-2.59zm5.181 0h25.91v25.91h-25.91Zm28.5 0h2.591v25.91h-2.59zm-25.909 2.59v20.73h20.728V22.932Z" style="fill:#ccc;stroke-width:1.29545"/></svg>
